packages/icons/src/background-ci-step-inverse.svg

<svg viewBox="0 0 40 41" xmlns="http://www.w3.org/2000/svg"><g clip-rule="evenodd" fill="#fff" fill-rule="evenodd"><path d="m22.3498 2.89409c.1696.2167.131.52954-.0862.69873l-1.4857 1.15717c8.2219.42845 15.2192 7.63921 15.2192 16.01571 0 .275-.2234.4978-.499.4978s-.499-.2228-.499-.4978c0-7.8058-6.5095-14.54331-14.1436-15.01395l1.3987 1.03723c.2212.16401.2672.47584.1028.69649s-.477.26657-.6982.10255l-2.623-1.94506c-.125-.09268-.1994-.23827-.2012-.39363-.0019-.15535.0691-.30266.1918-.39827l2.623-2.043c.2173-.1692.5308-.13068.7004.08603zm-17.85373 17.24761c.27559 0 .499.2228.499.4978 0 7.8058 6.50943 14.5433 14.14363 15.014l-1.3988-1.0373c-.2211-.164-.2672-.4758-.1028-.6965.1644-.2206.477-.2665.6982-.1025l2.623 1.945c.125.0927.1994.2383.2013.3937.0018.1553-.0691.3026-.1919.3983l-2.623 2.043c-.2172.1691-.5308.1306-.7004-.0861s-.131-.5295.0862-.6987l1.4857-1.1572c-8.2218-.4284-15.21913-7.6392-15.21913-16.0157 0-.275.22341-.4978.499-.4978z"/><path d="m17.9966 10.2016c0-.55227.4478-.99999 1-.99999h2c.5523 0 1 .44772 1 .99999v1.2971c.0002.0004.0008.0016.0022.0034.0036.0043.0102.009.0194.0111 1.0996.2409 2.127.674 3.0452 1.2621.0079.005.0158.0063.0213.0058.0022-.0002.0035-.0006.0039-.0008l.9172-.9172c.3905-.3905 1.0237-.3905 1.4142 0l1.4142 1.4142c.3906.3905.3906 1.0237 0 1.4142l-.9169.9169c-.0001.0004-.0006.0017-.0008.0039-.0005.0056.0008.0135.0058.0214.5887.9188 1.0223 1.947 1.2633 3.0475.002.0093.0067.0158.0111.0194.0017.0015.0029.002.0033.0022h1.2981c.5523 0 1 .4477 1 1v2c0 .5523-.4477 1-1 1h-1.2983c-.0004.0002-.0016.0007-.0033.0022-.0044.0036-.0091.0101-.0111.0194-.2412 1.1006-.6749 2.129-1.2639 3.0479-.005.0079-.0063.0158-.0058.0213.0002.0023.0006.0035.0008.0039l.9181.9183c.3903.3905.3903 1.0235 0 1.414l-1.414 1.4145c-.3906.3906-1.0239.3906-1.4145 0l-.9187-.919c-.0004-.0002-.0017-.0007-.0039-.0009-.0056-.0005-.0134.0008-.0213.0059-.9179.5876-1.9449 1.0205-3.044 1.2613-.0092.002-.0158.0067-.0194.0111-.0014.0017-.002.0029-.0022.0033v1.2976c0 .5523-.4477 1-1 1h-2c-.5522 0-1-.4477-1-1v-1.2974s0 .0001 0 0c-.0001-.0004-.0007-.0016-.0021-.0033-.0036-.0044-.0102-.0091-.0194-.0111-1.1005-.241-2.1288-.6745-3.0476-1.2633-.0079-.005-.0158-.0063-.0214-.0058-.0022.0002-.0035.0006-.0039.0008 0 0 .0001 0 0 0l-.9186.9186c-.3905.3906-1.0237.3906-1.4142 0l-1.4142-1.4142c-.3906-.3905-.3906-1.0237 0-1.4142l.9188-.9189c.0001 0 0 .0001 0 0 .0002-.0004.0007-.0016.0009-.0039.0005-.0055-.0008-.0134-.0058-.0213-.5881-.9182-1.0213-1.9456-1.2622-3.0452-.002-.0093-.0067-.0158-.0111-.0194-.0017-.0015-.0029-.002-.0033-.0022 0 0 .0001 0 0 0h-1.29641c-.55228 0-1-.4477-1-1v-2c0-.5523.44772-1 1-1h1.29621c.0004-.0002.0016-.0007.0034-.0022.0043-.0036.009-.0101.011-.0194.241-1.1003.6745-2.1285 1.2631-3.0472.005-.0079.0063-.0158.0058-.0214-.0002-.0022-.0006-.0034-.0008-.0038l-.9171-.9174c-.3904-.3905-.3904-1.0235 0-1.414l1.414-1.4144c.3906-.3907 1.0239-.3907 1.4144 0l.9173.9175c.0003.0001.0016.0006.0039.0008.0055.0005.0134-.0008.0213-.0058.9185-.5884 1.9464-1.0217 3.0465-1.2626.0092-.002.0158-.0067.0194-.011.0014-.0018.002-.003.0021-.0034 0 0 0 .0001 0 0zm-5.9226 15.5932c.0001 0 0 .0001 0 0zm2.8282 2.8287s.0001 0 0 0zm6.0944-18.4219h-2v1.2969c0 .4931-.3541.892-.8076.9913-.9821.2151-1.9001.6019-2.721 1.1277-.3911.2505-.9234.2185-1.2719-.13l-.9172-.9175-1.414 1.4144.9171.9173c.3484.3485.3803.8808.1298 1.2718-.5261.821-.9131 1.7393-1.1282 2.7216-.0993.4536-.4982.8077-.9913.8077h-1.29621v2h1.29641c.493 0 .8919.3541.9913.8076.215.9817.6018 1.8993 1.1273 2.7199.2505.3909.2185.9232-.13 1.2716l-.9188.9189 1.4142 1.4142.9186-.9186c.3485-.3485.8809-.3804 1.2719-.1299.8211.5262 1.7395.9133 2.722 1.1285.4535.0993.8076.4982.8076.9912v1.2974h2v-1.2976c0-.493.3541-.8919.8076-.9912.9812-.215 1.8984-.6015 2.7188-1.1267.391-.2504.9232-.2183 1.2716.1302l.9187.919 1.4141-1.4145-.9181-.9183c-.3484-.3485-.3803-.8809-.1297-1.2718.5264-.8213.9137-1.7397 1.129-2.7223.0993-.4535.4982-.8076.9912-.8076h1.2983v-2h-1.2981c-.493 0-.892-.3541-.9913-.8077-.2151-.9825-.6022-1.9008-1.1284-2.7219-.2505-.391-.2186-.9234.1299-1.2719l.9169-.9169-1.4142-1.4142-.9172.9172c-.3484.3484-.8807.3804-1.2717.13-.8205-.5256-1.7381-.9123-2.7198-1.1274-.4535-.0994-.8076-.4983-.8076-.9913zm-.9516 5.1075c-3.0596 0-5.54 2.4803-5.54 5.54 0 3.0596 2.4804 5.54 5.54 5.54 3.0597 0 5.54-2.4804 5.54-5.54 0-3.0597-2.4803-5.54-5.54-5.54zm-6.54 5.54c0-3.612 2.9281-6.54 6.54-6.54 3.612 0 6.54 2.928 6.54 6.54 0 3.6119-2.928 6.54-6.54 6.54-3.6119 0-6.54-2.9281-6.54-6.54z"/></g></svg>

<svg viewBox="0 0 40 41" xmlns="http://www.w3.org/2000/svg">
<path fill-rule="evenodd" clip-rule="evenodd" d="M22.3498 2.89409C22.5194 3.11079 22.4808 3.42363 22.2636 3.59282L20.7779 4.74999C28.9998 5.17844 35.9971 12.3892 35.9971 20.7657C35.9971 21.0407 35.7737 21.2635 35.4981 21.2635C35.2225 21.2635 34.9991 21.0407 34.9991 20.7657C34.9991 12.9599 28.4896 6.22239 20.8555 5.75175L22.2542 6.78898C22.4754 6.95299 22.5214 7.26482 22.357 7.48547C22.1926 7.70612 21.88 7.75204 21.6588 7.58802L19.0358 5.64296C18.9108 5.55028 18.8364 5.40469 18.8346 5.24933C18.8327 5.09398 18.9037 4.94667 19.0264 4.85106L21.6494 2.80806C21.8667 2.63886 22.1802 2.67738 22.3498 2.89409ZM4.49607 20.1417C4.77166 20.1417 4.99507 20.3645 4.99507 20.6395C4.99507 28.4453 11.5045 35.1828 19.1387 35.6535L17.7399 34.6162C17.5188 34.4522 17.4727 34.1404 17.6371 33.9197C17.8015 33.6991 18.1141 33.6532 18.3353 33.8172L20.9583 35.7622C21.0833 35.8549 21.1577 36.0005 21.1596 36.1559C21.1614 36.3112 21.0905 36.4585 20.9677 36.5542L18.3447 38.5972C18.1275 38.7663 17.8139 38.7278 17.6443 38.5111C17.4747 38.2944 17.5133 37.9816 17.7305 37.8124L19.2162 36.6552C10.9944 36.2268 3.99707 29.016 3.99707 20.6395C3.99707 20.3645 4.22048 20.1417 4.49607 20.1417Z" fill="white"/>
<path fill-rule="evenodd" clip-rule="evenodd" d="M17.9966 10.2016C17.9966 9.64933 18.4444 9.20161 18.9966 9.20161H20.9966C21.5489 9.20161 21.9966 9.64933 21.9966 10.2016V11.4987C21.9966 11.4987 21.9966 11.4987 21.9966 11.4987C21.9968 11.4991 21.9974 11.5003 21.9988 11.5021C22.0024 11.5064 22.009 11.5111 22.0182 11.5132C23.1178 11.7541 24.1452 12.1872 25.0634 12.7753C25.0713 12.7803 25.0792 12.7816 25.0847 12.7811C25.0869 12.7809 25.0882 12.7805 25.0886 12.7803C25.0886 12.7803 25.0886 12.7803 25.0886 12.7803L26.0058 11.8631C26.3963 11.4726 27.0295 11.4726 27.42 11.8631L28.8342 13.2773C29.2248 13.6678 29.2248 14.301 28.8342 14.6915L27.9173 15.6084C27.9173 15.6084 27.9173 15.6084 27.9173 15.6084C27.9172 15.6088 27.9167 15.6101 27.9165 15.6123C27.916 15.6179 27.9173 15.6258 27.9223 15.6337C28.511 16.5525 28.9446 17.5807 29.1856 18.6812C29.1876 18.6905 29.1923 18.697 29.1967 18.7006C29.1984 18.7021 29.1996 18.7026 29.2 18.7028C29.2 18.7028 29.2 18.7028 29.2 18.7028H30.4981C31.0504 18.7028 31.4981 19.1505 31.4981 19.7028V21.7028C31.4981 22.2551 31.0504 22.7028 30.4981 22.7028H29.1998C29.1998 22.7028 29.1998 22.7028 29.1998 22.7028C29.1994 22.703 29.1982 22.7035 29.1965 22.705C29.1921 22.7086 29.1874 22.7151 29.1854 22.7244C28.9442 23.825 28.5105 24.8534 27.9215 25.7723C27.9165 25.7802 27.9152 25.7881 27.9157 25.7936C27.9159 25.7959 27.9163 25.7971 27.9165 25.7975C27.9165 25.7975 27.9165 25.7975 27.9165 25.7975L28.8346 26.7158C29.2249 27.1063 29.2249 27.7393 28.8346 28.1298L27.4206 29.5443C27.03 29.9349 26.3967 29.9349 26.0061 29.5443L25.0874 28.6253C25.0874 28.6253 25.0874 28.6253 25.0874 28.6253C25.087 28.6251 25.0857 28.6246 25.0835 28.6244C25.0779 28.6239 25.0701 28.6252 25.0622 28.6303C24.1443 29.2179 23.1173 29.6508 22.0182 29.8916C22.009 29.8936 22.0024 29.8983 21.9988 29.9027C21.9974 29.9044 21.9968 29.9056 21.9966 29.906C21.9966 29.906 21.9966 29.906 21.9966 29.906V31.2036C21.9966 31.7559 21.5489 32.2036 20.9966 32.2036H18.9966C18.4444 32.2036 17.9966 31.7559 17.9966 31.2036V29.9062C17.9966 29.9062 17.9966 29.9063 17.9966 29.9062C17.9965 29.9058 17.9959 29.9046 17.9945 29.9029C17.9909 29.8985 17.9843 29.8938 17.9751 29.8918C16.8746 29.6508 15.8463 29.2173 14.9275 28.6285C14.9196 28.6235 14.9117 28.6222 14.9061 28.6227C14.9039 28.6229 14.9026 28.6233 14.9022 28.6235C14.9022 28.6235 14.9023 28.6235 14.9022 28.6235L13.9836 29.5421C13.5931 29.9327 12.9599 29.9327 12.5694 29.5421L11.1552 28.1279C10.7646 27.7374 10.7646 27.1042 11.1552 26.7137L12.074 25.7948C12.0741 25.7948 12.074 25.7949 12.074 25.7948C12.0742 25.7944 12.0747 25.7932 12.0749 25.7909C12.0754 25.7854 12.0741 25.7775 12.0691 25.7696C11.481 24.8514 11.0478 23.824 10.8069 22.7244C10.8049 22.7151 10.8002 22.7086 10.7958 22.705C10.7941 22.7035 10.7929 22.703 10.7925 22.7028C10.7925 22.7028 10.7926 22.7028 10.7925 22.7028H9.49609C8.94381 22.7028 8.49609 22.2551 8.49609 21.7028L8.49609 19.7028C8.49609 19.1505 8.94381 18.7028 9.49609 18.7028H10.7923C10.7923 18.7028 10.7923 18.7028 10.7923 18.7028C10.7927 18.7026 10.7939 18.7021 10.7957 18.7006C10.8 18.697 10.8047 18.6905 10.8067 18.6812C11.0477 17.5809 11.4812 16.5527 12.0698 15.634C12.0748 15.6261 12.0761 15.6182 12.0756 15.6126C12.0754 15.6104 12.075 15.6092 12.0748 15.6088C12.0748 15.6088 12.0748 15.6088 12.0748 15.6088L11.1577 14.6914C10.7673 14.3009 10.7673 13.6679 11.1577 13.2774L12.5717 11.863C12.9623 11.4723 13.5956 11.4723 13.9861 11.863L14.9034 12.7805C14.9034 12.7805 14.9033 12.7805 14.9034 12.7805C14.9037 12.7806 14.905 12.7811 14.9073 12.7813C14.9128 12.7818 14.9207 12.7805 14.9286 12.7755C15.8471 12.1871 16.875 11.7538 17.9751 11.5129C17.9843 11.5109 17.9909 11.5062 17.9945 11.5019C17.9959 11.5001 17.9965 11.4989 17.9966 11.4985C17.9966 11.4985 17.9966 11.4986 17.9966 11.4985V10.2016ZM12.074 25.7948C12.0741 25.7948 12.074 25.7949 12.074 25.7948ZM14.9022 28.6235C14.9022 28.6235 14.9023 28.6235 14.9022 28.6235ZM21.9966 29.906C21.9966 29.906 21.9966 29.906 21.9966 29.906ZM25.0874 28.6253C25.0874 28.6253 25.0874 28.6253 25.0874 28.6253ZM27.9165 25.7975C27.9165 25.7975 27.9165 25.7975 27.9165 25.7975ZM29.1998 22.7028C29.1998 22.7028 29.1998 22.7028 29.1998 22.7028ZM27.9173 15.6084C27.9173 15.6084 27.9173 15.6084 27.9173 15.6084ZM20.9966 10.2016L18.9966 10.2016V11.4985C18.9966 11.9916 18.6425 12.3905 18.189 12.4898C17.2069 12.7049 16.2889 13.0917 15.468 13.6175C15.0769 13.868 14.5446 13.836 14.1961 13.4875L13.2789 12.57L11.8649 13.9844L12.782 14.9017C13.1304 15.2502 13.1623 15.7825 12.9118 16.1735C12.3857 16.9945 11.9987 17.9128 11.7836 18.8951C11.6843 19.3487 11.2854 19.7028 10.7923 19.7028H9.49609V21.7028H10.7925C11.2855 21.7028 11.6844 22.0569 11.7838 22.5104C11.9988 23.4921 12.3856 24.4097 12.9111 25.2303C13.1616 25.6212 13.1296 26.1535 12.7811 26.5019L11.8623 27.4208L13.2765 28.835L14.1951 27.9164C14.5436 27.5679 15.076 27.536 15.467 27.7865C16.2881 28.3127 17.2065 28.6998 18.189 28.915C18.6425 29.0143 18.9966 29.4132 18.9966 29.9062V31.2036H20.9966V29.906C20.9966 29.413 21.3507 29.0141 21.8042 28.9148C22.7854 28.6998 23.7026 28.3133 24.523 27.7881C24.914 27.5377 25.4462 27.5698 25.7946 27.9183L26.7133 28.8373L28.1274 27.4228L27.2093 26.5045C26.8609 26.156 26.829 25.6236 27.0796 25.2327C27.606 24.4114 27.9933 23.493 28.2086 22.5104C28.3079 22.0569 28.7068 21.7028 29.1998 21.7028H30.4981V19.7028H29.2C28.707 19.7028 28.308 19.3487 28.2087 18.8951C27.9936 17.9126 27.6065 16.9943 27.0803 16.1732C26.8298 15.7822 26.8617 15.2498 27.2102 14.9013L28.1271 13.9844L26.7129 12.5702L25.7957 13.4874C25.4473 13.8358 24.915 13.8678 24.524 13.6174C23.7035 13.0918 22.7859 12.7051 21.8042 12.49C21.3507 12.3906 20.9966 11.9917 20.9966 11.4987V10.2016ZM20.045 15.3091C16.9854 15.3091 14.505 17.7894 14.505 20.8491C14.505 23.9087 16.9854 26.3891 20.045 26.3891C23.1047 26.3891 25.585 23.9087 25.585 20.8491C25.585 17.7894 23.1047 15.3091 20.045 15.3091ZM13.505 20.8491C13.505 17.2371 16.4331 14.3091 20.045 14.3091C23.657 14.3091 26.585 17.2371 26.585 20.8491C26.585 24.461 23.657 27.3891 20.045 27.3891C16.4331 27.3891 13.505 24.461 13.505 20.8491Z" fill="white"/>
</svg>
